X: 3437
T: Brudmarsch från Klövsjö
N:Anm. Klövsjö brudmarsch spelas traditionellt i D-dur, med omkastade repriser jämfört med föreliggande uppteckning.
N:För en standardversion av låten - se t ex http://www.spelmansforbundet.se/html/noter_101-200.html nr 105! (LS)
R: marsch
M: C|
L: 1/8
Q: 100
K: G

D2 |: D2G2 G2(FA) | G2(DC) B,2(A,B,) | G,3C C2D2 | E6G2 |
 F2A2 A2(BA) | F2(FE) D2(EF) | G2(Ac) B2(AF) |1 G6D2 :|2 G6(Bc) 
|: d4 d2ed | B3A G2(AB) | c3c c2e2 | c6B2 |
 A3B A2G2 | F3E D2(EF) | G2(Ac) B2(AF) |1 G6(Bc) :|2 G8 |]

(:musicend:)


(:music:)
